ubuntu.svg

<svg fill="currentColor" viewBox="0 0 24 24"><path d="M22 12a10 10 0 0 1-10 10A10 10 0 0 1 2 12 10 10 0 0 1 12 2a10 10 0 0 1 10 10m-7.66-4.26c.58.33 1.31.13 1.66-.44.31-.57.12-1.3-.46-1.64-.57-.33-1.31-.16-1.64.44-.33.57-.13 1.31.44 1.64m-2.46 7.76c-.53 0-1.03-.11-1.47-.32l-.84 1.5c.7.32 1.48.54 2.31.54.49 0 .95-.07 1.4-.19.08-.49.36-.93.82-1.19.46-.27.98-.29 1.44-.12.89-.87 1.46-2.06 1.55-3.39l-1.71-.02a3.506 3.506 0 0 1-3.5 3.19m0-7c1.84 0 3.34 1.39 3.5 3.19l1.71-.03a5.2 5.2 0 0 0-1.55-3.38c-.46.17-.99.14-1.44-.12-.46-.26-.74-.71-.82-1.19-.45-.12-.91-.19-1.4-.19-.83 0-1.61.19-2.31.54l.84 1.5c.44-.21.94-.32 1.47-.32M8.37 12c0-1.19.59-2.24 1.49-2.87L9 7.65a5.22 5.22 0 0 0-2.17 3.04c.38.31.62.78.62 1.31s-.24 1-.62 1.31A5.2 5.2 0 0 0 9 16.34l.86-1.47c-.9-.63-1.49-1.68-1.49-2.87m5.97 4.26c-.57.33-.77 1.06-.44 1.64.33.57 1.07.77 1.64.44.58-.34.77-1.07.46-1.64-.35-.58-1.08-.77-1.66-.44M5.76 10.8c-.66 0-1.2.54-1.2 1.2s.54 1.2 1.2 1.2c.67 0 1.2-.54 1.2-1.2s-.53-1.2-1.2-1.2"/></svg>

<svg  viewBox="0 0 24 24" fill="currentColor"><path  d="M22,12A10,10 0 0,1 12,22A10,10 0 0,1 2,12A10,10 0 0,1 12,2A10,10 0 0,1 22,12M14.34,7.74C14.92,8.07 15.65,7.87 16,7.3C16.31,6.73 16.12,6 15.54,5.66C14.97,5.33 14.23,5.5 13.9,6.1C13.57,6.67 13.77,7.41 14.34,7.74M11.88,15.5C11.35,15.5 10.85,15.39 10.41,15.18L9.57,16.68C10.27,17 11.05,17.22 11.88,17.22C12.37,17.22 12.83,17.15 13.28,17.03C13.36,16.54 13.64,16.1 14.1,15.84C14.56,15.57 15.08,15.55 15.54,15.72C16.43,14.85 17,13.66 17.09,12.33L15.38,12.31C15.22,14.1 13.72,15.5 11.88,15.5M11.88,8.5C13.72,8.5 15.22,9.89 15.38,11.69L17.09,11.66C17,10.34 16.43,9.15 15.54,8.28C15.08,8.45 14.55,8.42 14.1,8.16C13.64,7.9 13.36,7.45 13.28,6.97C12.83,6.85 12.37,6.78 11.88,6.78C11.05,6.78 10.27,6.97 9.57,7.32L10.41,8.82C10.85,8.61 11.35,8.5 11.88,8.5M8.37,12C8.37,10.81 8.96,9.76 9.86,9.13L9,7.65C7.94,8.36 7.15,9.43 6.83,10.69C7.21,11 7.45,11.47 7.45,12C7.45,12.53 7.21,13 6.83,13.31C7.15,14.56 7.94,15.64 9,16.34L9.86,14.87C8.96,14.24 8.37,13.19 8.37,12M14.34,16.26C13.77,16.59 13.57,17.32 13.9,17.9C14.23,18.47 14.97,18.67 15.54,18.34C16.12,18 16.31,17.27 16,16.7C15.65,16.12 14.92,15.93 14.34,16.26M5.76,10.8C5.1,10.8 4.56,11.34 4.56,12C4.56,12.66 5.1,13.2 5.76,13.2C6.43,13.2 6.96,12.66 6.96,12C6.96,11.34 6.43,10.8 5.76,10.8Z"/></svg>
